X:5
T:Capt Mackintosh's Fancy
F:http://www.vwml.org/record/Moore1/4493/p3
Z:Transcribed by Paul Barber-Riley  March 2016
S:John Moore's Book 1
L:1/8
M:2/4
K:C
A|d>ed>f | dAAA | d>ed>f | a3f |
bgge | affd | efge | (dc)(BA) |
d>ed>f | dAAA | d>ed>f | a3f |
bgge | aggd | geec | d3:|
d|abab | geef | gaga | f3d |
Ad/e/ fd | Be/f/ ge | bged | dcBA |
d>ed>f | dAAA | d>ed>f | a3f |
bgge | affd | geec | d3:|

